web/themes/quartiers_solidaires/assets/icons/trash.svg

<svg viewBox="0 0 50 50" xmlns="http://www.w3.org/2000/svg">
  <path d="M7 14.672h37v-2.836H7v2.836zM37.277 43h-3.632l1.304-25.328h4.937L37.277 43zM24 43h-3.641l-1.304-25.328H24V43zm7.945-25.328L30.641 43H27V17.672h4.945zm-20.831 0h4.937L17.355 43h-3.632l-2.609-25.328zM21.59 8.836h7.82V6h-7.82v2.836zm23.91 0H32.41V4.5a1.5 1.5 0 0 0-1.5-1.5H20.09a1.5 1.5 0 0 0-1.5 1.5v4.336H5.5a1.5 1.5 0 0 0-1.5 1.5v5.836a1.5 1.5 0 0 0 1.5 1.5h2.598l2.779 26.982A1.501 1.501 0 0 0 12.369 46h26.262c.768 0 1.413-.582 1.492-1.346l2.779-26.982H45.5a1.5 1.5 0 0 0 1.5-1.5v-5.836a1.5 1.5 0 0 0-1.5-1.5z" fill="currentColor" fill-rule="evenodd"/>
</svg>

<?xml version="1.0" encoding="UTF-8"?>
<svg width="50px" height="50px" viewBox="0 0 50 50" version="1.1" xmlns="http://www.w3.org/2000/svg" xmlns:xlink="http://www.w3.org/1999/xlink">
    <g id="Page-1" stroke="none" stroke-width="1" fill="none" fill-rule="evenodd">
        <path d="M7,14.672 L44,14.672 L44,11.836 L7,11.836 L7,14.672 Z M37.277,43 L33.645,43 L34.949,17.672 L39.886,17.672 L37.277,43 Z M24,43 L20.359,43 L19.055,17.672 L24,17.672 L24,43 Z M31.945,17.672 L30.641,43 L27,43 L27,17.672 L31.945,17.672 Z M11.114,17.672 L16.051,17.672 L17.355,43 L13.723,43 L11.114,17.672 Z M21.59,8.836 L29.41,8.836 L29.41,6 L21.59,6 L21.59,8.836 Z M45.5,8.836 L32.41,8.836 L32.41,4.5 C32.41,3.671 31.738,3 30.91,3 L20.09,3 C19.262,3 18.59,3.671 18.59,4.5 L18.59,8.836 L5.5,8.836 C4.672,8.836 4,9.507 4,10.336 L4,16.172 C4,17 4.672,17.672 5.5,17.672 L8.098,17.672 L10.877,44.654 C10.956,45.418 11.601,46 12.369,46 L38.631,46 C39.399,46 40.044,45.418 40.123,44.654 L42.902,17.672 L45.5,17.672 C46.328,17.672 47,17 47,16.172 L47,10.336 C47,9.507 46.328,8.836 45.5,8.836 L45.5,8.836 Z" id="trash" fill="currentColor"></path>
    </g>
</svg>
